lib/svg/file-doc.svg

<svg width="32" height="32" viewBox="0 0 32 32" fill="none" xmlns="http://www.w3.org/2000/svg">
<path fill-rule="evenodd" clip-rule="evenodd" d="M16 6.00003H9.25C8.91132 6.00003 8.59091 6.13179 8.35813 6.3594C8.12611 6.58626 8 6.88911 8 7.20003V24.8C8 25.1109 8.12611 25.4138 8.35813 25.6407C8.59091 25.8683 8.91132 26 9.25 26H22.75C23.0887 26 23.4091 25.8683 23.6419 25.6407C23.8739 25.4138 24 25.1109 24 24.8V14H17C16.4477 14 16 13.5523 16 13V6.00003ZM26 13.0079V24.8C26 25.6561 25.652 26.4724 25.0401 27.0707C24.429 27.6682 23.6048 28 22.75 28H9.25C8.39521 28 7.57102 27.6682 6.95989 27.0707C6.348 26.4724 6 25.6561 6 24.8V7.20003C6 6.34399 6.348 5.52768 6.95989 4.92939C7.57102 4.33184 8.39521 4.00003 9.25 4.00003H16.9921C16.9972 3.99999 17.0023 3.99999 17.0074 4.00003H17.125C17.3863 4.00003 17.6373 4.10233 17.8241 4.28502L25.6991 11.985C25.8915 12.1732 26 12.4309 26 12.7V12.9926C26 12.9977 26 13.0028 26 13.0079ZM18 12V7.41424L22.5858 12H18Z" fill="#4364E8"/>
<rect x="8" y="17" width="16" height="9" fill="#4364E8"/>
<path d="M9.77734 20.2422V24H10.8867C11.4544 24 11.8503 23.7201 12.0742 23.1602C12.1966 22.8529 12.2578 22.487 12.2578 22.0625C12.2578 21.4766 12.1654 21.0273 11.9805 20.7148C11.7982 20.3997 11.4336 20.2422 10.8867 20.2422H9.77734ZM11.0898 19.2422C11.4466 19.2474 11.7435 19.2891 11.9805 19.3672C12.3841 19.5 12.7109 19.7435 12.9609 20.0977C13.1615 20.3841 13.2982 20.694 13.3711 21.0273C13.444 21.3607 13.4805 21.6784 13.4805 21.9805C13.4805 22.7461 13.3268 23.3945 13.0195 23.9258C12.6029 24.6419 11.9596 25 11.0898 25H8.60938V19.2422H11.0898Z" fill="white"/>
<path d="M16.2975 24.1406C16.7741 24.1406 17.1517 23.9648 17.4303 23.6133C17.7116 23.2617 17.8522 22.7617 17.8522 22.1133C17.8522 21.4674 17.7116 20.9688 17.4303 20.6172C17.1517 20.263 16.7741 20.0859 16.2975 20.0859C15.8209 20.0859 15.4407 20.2617 15.1569 20.6133C14.873 20.9648 14.7311 21.4648 14.7311 22.1133C14.7311 22.7617 14.873 23.2617 15.1569 23.6133C15.4407 23.9648 15.8209 24.1406 16.2975 24.1406ZM19.0553 22.1133C19.0553 23.1471 18.7649 23.9388 18.1842 24.4883C17.7493 24.9362 17.1204 25.1602 16.2975 25.1602C15.4746 25.1602 14.8457 24.9362 14.4108 24.4883C13.8274 23.9388 13.5358 23.1471 13.5358 22.1133C13.5358 21.0586 13.8274 20.2669 14.4108 19.7383C14.8457 19.2904 15.4746 19.0664 16.2975 19.0664C17.1204 19.0664 17.7493 19.2904 18.1842 19.7383C18.7649 20.2669 19.0553 21.0586 19.0553 22.1133Z" fill="white"/>
<path d="M19.0872 22.168C19.0872 21.1628 19.3567 20.388 19.8958 19.8438C20.3645 19.3698 20.9609 19.1328 21.6848 19.1328C22.6536 19.1328 23.3619 19.4505 23.8098 20.0859C24.0572 20.4427 24.1901 20.8008 24.2083 21.1602H23.0052C22.927 20.8841 22.8268 20.6758 22.7044 20.5352C22.4856 20.2852 22.1614 20.1602 21.7317 20.1602C21.2942 20.1602 20.9492 20.3372 20.6966 20.6914C20.444 21.043 20.3177 21.5417 20.3177 22.1875C20.3177 22.8333 20.4505 23.3177 20.7161 23.6406C20.9843 23.9609 21.3242 24.1211 21.7356 24.1211C22.1575 24.1211 22.4791 23.9831 22.7005 23.707C22.8229 23.5586 22.9244 23.3359 23.0052 23.0391H24.1966C24.0924 23.6667 23.8255 24.1771 23.3958 24.5703C22.9687 24.9635 22.4205 25.1602 21.7513 25.1602C20.9231 25.1602 20.2721 24.8945 19.7981 24.3633C19.3242 23.8294 19.0872 23.0977 19.0872 22.168Z" fill="white"/>
</svg>

<svg xmlns="http://www.w3.org/2000/svg" width="32" height="32" fill="none" viewBox="0 0 32 32">
  <g class="file / doc">
    <path  fill-rule="evenodd" d="M16 6H9.25c-.339 0-.66.132-.892.36-.232.226-.358.53-.358.84v17.6c0 .31.126.614.358.84.233.228.553.36.892.36h13.5c.339 0 .66-.132.892-.36.232-.226.358-.53.358-.84V14h-7a1 1 0 01-1-1V6zm10 7.008V24.8c0 .856-.348 1.672-.96 2.27a3.276 3.276 0 01-2.29.93H9.25a3.276 3.276 0 01-2.29-.93A3.175 3.175 0 016 24.8V7.2c0-.856.348-1.672.96-2.27A3.276 3.276 0 019.25 4h7.875a1 1 0 01.7.285l7.874 7.7A1 1 0 0126 12.7v.308zM18 12V7.414L22.586 12H18z" class="Union" clip-rule="evenodd"/>
    <path  d="M8 17h16v9H8z" class="Rectangle 65"/>
    <g class="DOC">
      <path  d="M9.777 20.242V24h1.11c.567 0 .963-.28 1.187-.84.123-.307.184-.673.184-1.098 0-.585-.093-1.035-.277-1.347-.183-.315-.547-.473-1.094-.473h-1.11zm1.313-1c.357.005.653.047.89.125a1.9 1.9 0 01.98.73c.201.287.338.597.411.93.073.334.11.651.11.953 0 .766-.154 1.415-.461 1.946-.417.716-1.06 1.074-1.93 1.074H8.61v-5.758h2.48zM16.297 24.14c.477 0 .855-.175 1.133-.527.282-.351.422-.851.422-1.5 0-.646-.14-1.144-.422-1.496-.278-.354-.656-.531-1.133-.531-.476 0-.856.176-1.14.527-.284.352-.426.852-.426 1.5 0 .649.142 1.149.426 1.5.284.352.664.528 1.14.528zm2.758-2.027c0 1.034-.29 1.826-.87 2.375-.436.448-1.065.672-1.887.672-.823 0-1.452-.224-1.887-.672-.584-.55-.875-1.34-.875-2.375 0-1.054.291-1.846.875-2.375.435-.448 1.064-.672 1.886-.672.823 0 1.452.224 1.887.672.58.529.871 1.32.871 2.375zM19.087 22.168c0-1.005.27-1.78.809-2.324.468-.474 1.065-.711 1.789-.711.969 0 1.677.318 2.125.953.247.357.38.715.398 1.074h-1.203c-.078-.276-.178-.484-.3-.625-.22-.25-.544-.375-.973-.375-.438 0-.783.177-1.035.531-.253.352-.38.85-.38 1.497 0 .645.134 1.13.4 1.453.267.32.607.48 1.019.48.421 0 .743-.138.965-.414.122-.148.223-.371.304-.668h1.192c-.105.628-.371 1.138-.801 1.531-.427.393-.976.59-1.645.59-.828 0-1.479-.265-1.953-.797-.474-.534-.71-1.265-.71-2.195z"/>
    </g>
  </g>
</svg>
